static/icons/wallet.svg

<?xml version="1.0" encoding="iso-8859-1"?>
<!-- Generator: Adobe Illustrator 19.0.0, SVG Export Plug-In . SVG Version: 6.00 Build 0)  -->
<svg version="1.1" id="Layer_1" xmlns="http://www.w3.org/2000/svg" xmlns:xlink="http://www.w3.org/1999/xlink" x="0px" y="0px"
	 viewBox="0 0 469.341 469.341" style="enable-background:new 0 0 469.341 469.341;" xml:space="preserve">
<g>
	<g>
		<g>
			<path d="M448.004,236.639v-65.965c0-22.368-17.35-40.559-39.271-42.323l-61.26-107c-5.677-9.896-14.844-16.969-25.813-19.906
				c-10.917-2.917-22.333-1.385-32.104,4.302L79.553,128.007H42.67c-23.531,0-42.667,19.135-42.667,42.667v256
				c0,23.531,19.135,42.667,42.667,42.667h362.667c23.531,0,42.667-19.135,42.667-42.667v-65.965
				c12.389-4.418,21.333-16.147,21.333-30.035v-64C469.337,252.786,460.393,241.057,448.004,236.639z M383.944,128.007h-92.971
				l69.729-40.596L383.944,128.007z M350.103,68.898l-101.529,59.109h-42.113l133.112-77.5L350.103,68.898z M300.295,24.184
				c4.823-2.823,10.458-3.573,15.844-2.135c5.448,1.458,9.99,4.979,12.813,9.906l0.022,0.039l-164.91,96.013h-42.111L300.295,24.184
				z M426.67,426.674c0,11.76-9.573,21.333-21.333,21.333H42.67c-11.76,0-21.333-9.573-21.333-21.333v-256
				c0-11.76,9.573-21.333,21.333-21.333h362.667c11.76,0,21.333,9.573,21.333,21.333v64h-64c-35.292,0-64,28.708-64,64
				c0,35.292,28.708,64,64,64h64V426.674z M448.004,330.674c0,5.885-4.781,10.667-10.667,10.667H362.67
				c-23.531,0-42.667-19.135-42.667-42.667c0-23.531,19.135-42.667,42.667-42.667h74.667c5.885,0,10.667,4.781,10.667,10.667
				V330.674z"/>
			<path d="M362.67,277.341c-11.76,0-21.333,9.573-21.333,21.333c0,11.76,9.573,21.333,21.333,21.333
				c11.76,0,21.333-9.573,21.333-21.333C384.004,286.914,374.431,277.341,362.67,277.341z"/>
		</g>
	</g>
</g>
<g>
</g>
<g>
</g>
<g>
</g>
<g>
</g>
<g>
</g>
<g>
</g>
<g>
</g>
<g>
</g>
<g>
</g>
<g>
</g>
<g>
</g>
<g>
</g>
<g>
</g>
<g>
</g>
<g>
</g>
</svg>

<svg xmlns="http://www.w3.org/2000/svg" width="469.334" height="469.341" viewBox="0 0 469.334 469.341">
  <g id="wallet" transform="translate(-0.003)">
    <g id="Group_502" data-name="Group 502">
      <g id="Group_501" data-name="Group 501">
        <path id="Path_302" data-name="Path 302" d="M448,236.639V170.674a42.576,42.576,0,0,0-39.271-42.323l-61.26-107a42.215,42.215,0,0,0-57.917-15.6l-210,122.26H42.67A42.709,42.709,0,0,0,0,170.674v256A42.709,42.709,0,0,0,42.67,469.341H405.337A42.709,42.709,0,0,0,448,426.674V360.709a31.948,31.948,0,0,0,21.333-30.035v-64A31.948,31.948,0,0,0,448,236.639Zm-64.06-108.632H290.973l69.729-40.6ZM350.1,68.9,248.574,128.007H206.461l133.112-77.5ZM300.3,24.184a20.628,20.628,0,0,1,15.844-2.135,20.915,20.915,0,0,1,12.813,9.906l.022.039-164.91,96.013H121.953ZM426.67,426.674a21.361,21.361,0,0,1-21.333,21.333H42.67a21.361,21.361,0,0,1-21.333-21.333v-256A21.361,21.361,0,0,1,42.67,149.341H405.337a21.361,21.361,0,0,1,21.333,21.333v64h-64a64,64,0,0,0,0,128h64v64Zm21.334-96a10.674,10.674,0,0,1-10.667,10.667H362.67a42.667,42.667,0,0,1,0-85.334h74.667A10.674,10.674,0,0,1,448,266.674Z" fill="#35495e"/>
        <path id="Path_303" data-name="Path 303" d="M362.67,277.341A21.333,21.333,0,1,0,384,298.674,21.361,21.361,0,0,0,362.67,277.341Z" fill="#35495e"/>
      </g>
    </g>
  </g>
</svg>
